svgs/light/piano-keyboard.svg

<svg xmlns="http://www.w3.org/2000/svg" viewBox="0 0 576 512"><!-- Font Awesome Pro 6.0.0-alpha2 by @fontawesome - https://fontawesome.com License - https://fontawesome.com/license (Commercial License) --><path d="M512 64H64C28.801 64 0 92.799 0 128V384C0 419.199 28.801 448 64 448H512C547.199 448 576 419.199 576 384V128C576 92.799 547.199 64 512 64ZM128 416H64C46.326 416 32 401.672 32 384V224H96V320C96 328.875 103.125 336 112 336H128V416ZM272 416H160V336H176C184.875 336 192 328.875 192 320V224H240V320C240 328.875 247.125 336 256 336H272V416ZM128 304V224H160V304H128ZM416 416H304V336H320C328.875 336 336 328.875 336 320V224H384V320C384 328.875 391.125 336 400 336H416V416ZM272 304V224H304V304H272ZM544 384C544 401.672 529.674 416 512 416H448V336H464C472.875 336 480 328.875 480 320V224H544V384ZM416 304V224H448V304H416ZM544 192H32V128C32 110.326 46.326 96 64 96H512C529.674 96 544 110.326 544 128V192Z"/></svg>

<svg xmlns="http://www.w3.org/2000/svg" viewBox="0 0 576 512"><!--! Font Awesome Pro 6.3.0 by @fontawesome - https://fontawesome.com License - https://fontawesome.com/license (Commercial License) Copyright 2023 Fonticons, Inc. --><path d="M512 64H64C28.8 64 0 92.8 0 128v256c0 35.2 28.8 64 64 64h448c35.2 0 64-28.8 64-64V128C576 92.8 547.2 64 512 64zM128 416H64c-17.67 0-32-14.33-32-32V224h64v96c0 8.875 7.125 16 16 16H128V416zM272 416H160v-80h16C184.9 336 192 328.9 192 320V224h48v96c0 8.875 7.125 16 16 16h16V416zM128 304V224h32v80H128zM416 416h-112v-80H320c8.875 0 16-7.125 16-16V224H384v96c0 8.875 7.125 16 16 16H416V416zM272 304V224h32v80H272zM544 384c0 17.67-14.33 32-32 32h-64v-80h16c8.875 0 16-7.125 16-16V224h64V384zM416 304V224h32v80H416zM544 192H32V128c0-17.67 14.33-32 32-32h448c17.67 0 32 14.33 32 32V192z"/></svg>
